X: 95
T: Antalya Zeybeği
C: Erdal İyiöz
O: Turkey
F: http://compmusic.upf.edu/node/140
N: segah--zeybek--agiraksak--antalya_zeybegi--antalya
N: makam= segah
N: form= zeybek
N: usul= agiraksak = 9/4
M: 9/4
L: 1/16
K: C _1/4B _1/4e ^f 
Q: 1/4=63
%%MIDI tuningsystem comma53
g3/2f/g2 =f3/2e/d2 g3/2^f/g2 =f3/2e/d2 f3/2e/dc B2^3/4A2 B3/2c/B3/2c/ d3/2e/d3/2e/ f3/2e/d2  | 
w:   | 
g3/2f/g2 =f3/2e/d2 g3/2^f/g2 =f3/2e/d2 f3/2e/dc B2^3/4A2 B4 B4 B4  | 
w:   | 
g3/2f/g2 =f3/2e/d2 g3/2^f/g2 =f3/2e/d2 f3/2e/dc B2^3/4A2 B3/2c/B3/2c/ d3/2e/d3/2e/ f3/2e/d2  | 
w:   | 
g3/2f/g2 =f3/2e/d2 g3/2^f/g2 =f3/2e/d2 f3/2e/dc B2^3/4A2 B4 B4 B4  | 
w:   | 
z16  | g3/2f/gab3/2a/g2g3/2f/g^3/4ab3/2a/g2  | z36  | \
w:  |   |  | 
g3/2g/gg =f3/2e/d2 g3/2g/gg f3/2e/d2 f3/2e/dc B2^3/4A2 B3/2c/B3/2c/ d3/2e/d3/2e/ f3/2e/d2  | 
w:   | 
g3/2f/g2 =f3/2e/d2 g3/2^f/g2 =f3/2e/d2 f3/2e/dc B2^3/4A2 B4 B4 B4  | 
w:   | 
g3/2f/g2 =f3/2e/d2 g3/2^f/g2 =f3/2e/d2 f3/2e/dc B2^3/4A2 B3/2c/B3/2c/ d3/2e/d3/2e/ f3/2e/d2  | 
w:   | 
g3/2f/g2 =f3/2e/d2 g3/2^f/g2 =f3/2e/d2 f3/2e/dc B2^3/4A2 B4 B4 B4  | 
w:   | 
g3/2f/g2 =f3/2e/d2 g3/2^f/g2 =f3/2e/d2 f3/2e/dc B2^3/4A2 B3/2c/B3/2c/ d3/2e/d3/2e/ f3/2e/d2  | 
w:   | 
g3/2f/g2 =f3/2e/d2 g3/2^f/g2 =f3/2e/d2 f3/2e/dc B2^3/4A2 B4 B4 B4  | 
w:   | 
z16  | g3/2f/gab3/2a/g2g3/2f/g^3/4ab3/2a/g2  | z36  | \
w:  |   |  | 
g3/2g/gg =f3/2e/d2 g3/2g/gg f3/2e/d2 f3/2e/dc B2^3/4A2 B3/2c/B3/2c/ d3/2e/d3/2e/ f3/2e/d2  | 
w:   | 
g3/2f/g2 =f3/2e/d2 g3/2^f/g2 =f3/2e/d2 f3/2e/dc B2^3/4A2 B4 B4 B4  | 
w:   | 
|


